X: 9770
T: Delphi Air, The
R: waltz
M: 3/4
K: Eminor
M:4/4
DEF{A}FG4-|G8-|G2JAF3-F2-|F4G/F/ E E2-|E8-|E4z4|
z6E/F/F|JG2AJB2-B3-|B{c}BAGF4-|F4{A}F2G{A}G|EE4-E3-|E6z2|z4z3
E|FFJG6-|G4{A}!>!G4|F8-|F2{A}FJG2EED|E8-|!>!E6z2|
z4 E/{A}E/D/E/ FF|JG2AJB2-B3|-B{c}BA6-|A4{c}AF{A}FE|E8-|E6z2|z3z4
d|Je8|{a}edeff2Jg2-|g8|{a}!>!g2f6-|f3{a}fedJe2-|e8-|e2z6|
zef g/{a}g/f/g/ gJa2-|a8|Jbf3-f4|Jga/{c'}a/Jg3fed|e8|
z2Jf2e/d/B3-|B8-|B2z6|{Bc}BABB2Jc3-|c2-!>!c3B{c}BA/B/|
A8-|A{c}AFJB3-B2-|B3E3-E2-|E2{A}(3EDEF4-|F3{A}FEE3-|E8-|E4z4|
z4E/{A}E/DEF|F2JG6-|!>!G8|F{A}F4-F3-|F8-|FG{A}GEE4-|!>!E8|z8|
{A}(3EDE FF2JG3-|G2{A}(3GFG AJB B2-|B4 FF3-|F6JA2-|A8|{c}A^GJA4{c}AG-|
GFE2^DJE3|{A}(3EDE JF4 (3GAG-|G2FEE4-|E6z2|z8|
z3z2dJe2-|e2f2fJg3-|g8-|{a}gf4-f3-|f8-|fJg3zB{c}BA|Bf4-f3|
f2{a}feJe4-|e8-|!>!e2dBz4|z3effJg2-|g2ab{c'}a4-|a4-a3!>!g|f4-f3B|Jg6z2|
z3B/{c}B/A/B/Je3-|e2f//e//d/ef4-|f3Jg/f/eJe3-|!>!e4z4|z6EF|
f2g/f/Jg3{a}a/gf/|{a}f4eBAB|BJc4-c3-|c8|zFGAA4-|A6z2|
zFJB3-B2{c}B|E6{A}(3EDE|F8-|F3-!>!F2.Ez2|EE{A}E2JE4-|E8-|E2z6|
EDEFF2G2|JG8-|G4F4-|F8-|F4JG{A}GE2-|E8-|E8-|E6z2|

